SVG_Azure_Grouped/Management/Azure Arc Machine.svg

<?xml version="1.0" encoding="UTF-8" standalone="no"?>
<!-- Generated by Microsoft Visio, SVG Export Azure Arc Machine.svg Page-1 -->

<svg
   xmlns:dc="http://purl.org/dc/elements/1.1/"
   xmlns:cc="http://creativecommons.org/ns#"
   xmlns:rdf="http://www.w3.org/1999/02/22-rdf-syntax-ns#"
   xmlns:svg="http://www.w3.org/2000/svg"
   xmlns="http://www.w3.org/2000/svg"
   xmlns:sodipodi="http://sodipodi.sourceforge.net/DTD/sodipodi-0.dtd"
   xmlns:inkscape="http://www.inkscape.org/namespaces/inkscape"
   width="0.74544746in"
   height="0.78744298in"
   viewBox="0 0 53.672427 56.696004"
   xml:space="preserve"
   class="st5"
   version="1.1"
   id="svg45"
   sodipodi:docname="Azure Arc Machine.svg"
   style="font-size:12px;overflow:visible;color-interpolation-filters:sRGB;fill:none;fill-rule:evenodd;stroke-linecap:square;stroke-miterlimit:3"
   inkscape:version="0.92.5 (2060ec1f9f, 2020-04-08)"><metadata
   id="metadata49"><rdf:RDF><cc:Work
       rdf:about=""><dc:format>image/svg+xml</dc:format><dc:type
         rdf:resource="http://purl.org/dc/dcmitype/StillImage" /></cc:Work></rdf:RDF></metadata><sodipodi:namedview
   pagecolor="#ffffff"
   bordercolor="#666666"
   borderopacity="1"
   objecttolerance="10"
   gridtolerance="10"
   guidetolerance="10"
   inkscape:pageopacity="0"
   inkscape:pageshadow="2"
   inkscape:window-width="640"
   inkscape:window-height="480"
   id="namedview47"
   showgrid="false"
   inkscape:zoom="1.4192955"
   inkscape:cx="35.782593"
   inkscape:cy="37.784813"
   inkscape:window-x="0"
   inkscape:window-y="0"
   inkscape:window-maximized="0"
   inkscape:current-layer="svg45" />
	<style
   type="text/css"
   id="style2">
	<![CDATA[
		.st1 {fill:#5ea0ef;stroke:none;stroke-linecap:butt;stroke-width:34}
		.st2 {fill:#50e6ff;stroke:none;stroke-linecap:butt;stroke-width:34}
		.st3 {fill:url(#grad0-10);stroke:none;stroke-linecap:butt;stroke-width:34}
		.st4 {fill:#552f99;stroke:none;stroke-linecap:butt;stroke-width:34}
		.st5 {fill:none;fill-rule:evenodd;font-size:12px;overflow:visible;stroke-linecap:square;stroke-miterlimit:3}
	]]>
	</style>

	<defs
   id="Patterns_And_Gradients">
		<linearGradient
   id="grad0-10"
   x1="0"
   y1="66.189333"
   x2="33.977158"
   y2="66.189333"
   gradientTransform="scale(0.80318666,1.2450406)"
   gradientUnits="userSpaceOnUse">
			<stop
   offset="0"
   stop-color="#a67af4"
   stop-opacity="1"
   id="stop4" />
			<stop
   offset="1"
   stop-color="#773adc"
   stop-opacity="1"
   id="stop6" />
		</linearGradient>
	</defs>
	<g
   id="g43"
   transform="translate(-33.99995,-33.997728)">
		<title
   id="title10">Page-1</title>
		<g
   id="group12995-1"
   transform="translate(33.907,-34.0157)">
			<title
   id="title12">Azure Arc Machine.12995</title>
			<g
   id="group12996-2">
				<title
   id="title14">Sheet.12996</title>
				<g
   id="shape12997-3"
   transform="translate(0.0730759)">
					<title
   id="title16">Sheet.12997</title>
					<path
   d="m 53.61,115.88 c -0.51,2.2 -3.24,4.38 -8.19,6.07 A 67.5833,67.9794 0 0 1 7.47,122 c -4.56,-1.63 -7.02,-3.69 -7.4,-5.81 -0.07,-0.37 0,-6.19 0,-6.19 l 53.62,-0.5 c 0,0 -0.02,6.1 -0.08,6.38 z"
   class="st1"
   id="path18"
   inkscape:connector-curvature="0"
   style="fill:#5ea0ef;stroke:none;stroke-width:34;stroke-linecap:butt" />
				</g>
				<g
   id="shape12998-5"
   transform="rotate(-0.575,-520.81753,103.48523)">
					<title
   id="title21">Sheet.12998</title>
					<ellipse
   cx="26.8374"
   cy="115.377"
   rx="26.8374"
   ry="9.3330402"
   class="st2"
   id="ellipse23"
   style="fill:#50e6ff;stroke:none;stroke-width:34;stroke-linecap:butt" />
				</g>
				<g
   id="shape12999-7"
   transform="translate(13.2961,-14.3951)">
					<title
   id="title26">Sheet.12999</title>
					<path
   d="m 27.29,123.28 a 1.50888,1.51772 0 0 1 -1.56,1.43 H 1.57 A 1.50888,1.51772 0 0 1 0,123.28 V 83.85 a 1.50262,1.51142 0 0 1 1.57,-1.44 h 24.15 a 1.50575,1.51457 0 0 1 1.56,1.43 z"
   class="st3"
   id="path28"
   inkscape:connector-curvature="0"
   style="fill:url(#grad0-10);stroke:none;stroke-width:34;stroke-linecap:butt" />
				</g>
				<g
   id="shape13000-11"
   transform="translate(17.3,-35.3094)">
					<title
   id="title31">Sheet.13000</title>
					<path
   d="M 16.55,124.71 H 2.96 A 3.13045,3.1488 0 0 1 0,121.42 3.13045,3.1488 0 0 1 2.96,118.13 h 13.59 a 3.13045,3.1488 0 0 1 2.97,3.29 3.13045,3.1488 0 0 1 -2.97,3.29 z m 2.97,-13.07 a 3.13045,3.1488 -180 0 0 -2.97,-3.28 H 2.96 a 3.13045,3.1488 -180 0 0 -2.96,3.28 3.13045,3.1488 -180 0 0 2.96,3.29 h 13.59 a 3.13045,3.1488 -180 0 0 2.97,-3.29 z"
   class="st4"
   id="path33"
   inkscape:connector-curvature="0"
   style="fill:#552f99;stroke:none;stroke-width:34;stroke-linecap:butt" />
				</g>
				<g
   id="shape13001-13"
   transform="translate(30.8047,-37.0634)">
					<title
   id="title36">Sheet.13001</title>
					<path
   d="m 2.19,111.19 a 2.19132,2.20416 0 1 1 -2.19,2.2 2.19132,2.20416 0 0 1 2.19,-2.2 z M 0,123.15 a 2.19132,2.20416 -180 1 0 2.19,-2.2 2.19132,2.20416 -180 0 0 -2.19,2.21 z"
   class="st2"
   id="path38"
   inkscape:connector-curvature="0"
   style="fill:#50e6ff;stroke:none;stroke-width:34;stroke-linecap:butt" />
				</g>
			</g>
		</g>
	</g>
</svg>

<?xml version="1.0" encoding="UTF-8" standalone="no"?>
<!DOCTYPE svg PUBLIC "-//W3C//DTD SVG 1.1//EN" "http://www.w3.org/Graphics/SVG/1.1/DTD/svg11.dtd">
<!-- Generated by Microsoft Visio, SVG Export Azure Arc Machine.svg Page-1 -->
<svg xmlns="http://www.w3.org/2000/svg" xmlns:xlink="http://www.w3.org/1999/xlink" xmlns:ev="http://www.w3.org/2001/xml-events"
		width="1.68991in" height="1.73208in" viewBox="0 0 121.674 124.71" xml:space="preserve" color-interpolation-filters="sRGB"
		class="st5">
	<style type="text/css">
	<![CDATA[
		.st1 {fill:#5ea0ef;stroke:none;stroke-linecap:butt;stroke-width:34}
		.st2 {fill:#50e6ff;stroke:none;stroke-linecap:butt;stroke-width:34}
		.st3 {fill:url(#grad0-10);stroke:none;stroke-linecap:butt;stroke-width:34}
		.st4 {fill:#552f99;stroke:none;stroke-linecap:butt;stroke-width:34}
		.st5 {fill:none;fill-rule:evenodd;font-size:12px;overflow:visible;stroke-linecap:square;stroke-miterlimit:3}
	]]>
	</style>

	<defs id="Patterns_And_Gradients">
		<linearGradient id="grad0-10" x1="0" y1="0" x2="1" y2="0" gradientTransform="rotate(90 0.5 0.5)">
			<stop offset="0" stop-color="#a67af4" stop-opacity="1"/>
			<stop offset="1" stop-color="#773adc" stop-opacity="1"/>
		</linearGradient>
	</defs>
	<g>
		<title>Page-1</title>
		<g id="group12702-1" transform="translate(33.907,-34.0157)">
			<title>Azure Arc Machine.12702</title>
			<g id="group12703-2">
				<title>Sheet.12703</title>
				<g id="shape12704-3" transform="translate(0.0730759,1.42109E-14)">
					<title>Sheet.12704</title>
					<path d="M53.61 115.88 C53.1 118.08 50.37 120.26 45.42 121.95 A67.5833 67.9794 0 0 1 7.47 122 C2.91 120.37 0.45
								 118.31 0.07 116.19 C0 115.82 0.07 110 0.07 110 L53.69 109.5 C53.69 109.5 53.67 115.6 53.61 115.88
								 Z" class="st1"/>
				</g>
				<g id="shape12705-5" transform="translate(-1.06475,-5.22144) rotate(-0.575)">
					<title>Sheet.12705</title>
					<ellipse cx="26.8374" cy="115.377" rx="26.8374" ry="9.33304" class="st2"/>
				</g>
				<g id="shape12706-7" transform="translate(13.2961,-14.3951)">
					<title>Sheet.12706</title>
					<path d="M27.29 123.28 A1.50888 1.51772 0 0 1 25.73 124.71 L1.57 124.71 A1.50888 1.51772 0 0 1 0 123.28 L0 83.85
								 A1.50262 1.51142 0 0 1 1.57 82.41 L25.72 82.41 A1.50575 1.51457 0 0 1 27.28 83.84 L27.29 123.28
								 Z" class="st3"/>
				</g>
				<g id="shape12707-11" transform="translate(17.3,-35.3094)">
					<title>Sheet.12707</title>
					<path d="M16.55 124.71 L2.96 124.71 A3.13045 3.1488 0 0 1 0 121.42 A3.13045 3.1488 0 0 1 2.96 118.13 L16.55 118.13
								 A3.13045 3.1488 0 0 1 19.52 121.42 A3.13045 3.1488 0 0 1 16.55 124.71 ZM19.52 111.64 A3.13045 3.1488
								 -180 0 0 16.55 108.36 L2.96 108.36 A3.13045 3.1488 -180 0 0 -0 111.64 A3.13045 3.1488 -180 0 0 2.96
								 114.93 L16.55 114.93 A3.13045 3.1488 -180 0 0 19.52 111.64 Z" class="st4"/>
				</g>
				<g id="shape12708-13" transform="translate(30.8047,-37.0634)">
					<title>Sheet.12708</title>
					<path d="M2.19 111.19 A2.19132 2.20416 0 1 1 0 113.39 A2.19132 2.20416 0 0 1 2.19 111.19 ZM0 123.15 A2.19132
								 2.20416 -180 1 0 2.19 120.95 A2.19132 2.20416 -180 0 0 0 123.16 L0 123.15 Z" class="st2"/>
				</g>
			</g>
		</g>
	</g>
</svg>
